public/assets/img/icons/contact-2.svg

<svg width="40" height="30" viewBox="0 0 40 30" fill="none" xmlns="http://www.w3.org/2000/svg">
<path d="M0 5C0 2.23828 2.23828 0 5 0H35C37.7578 0 40 2.23828 40 5V25C40 27.7578 37.7578 30 35 30H5C2.23828 30 0 27.7578 0 25V5ZM2.5 5V8.11719L17.7813 19.3203C19.1016 20.2891 20.8984 20.2891 22.2187 19.3203L37.5 8.11719V5C37.5 3.61719 36.3828 2.5 35 2.5H4.92969C3.61953 2.5 2.42969 3.61719 2.42969 5H2.5ZM2.5 11.2188V25C2.5 26.3828 3.61953 27.5 5 27.5H35C36.3828 27.5 37.5 26.3828 37.5 25V11.2188L23.6953 21.3359C21.4922 22.9531 18.5078 22.9531 16.3047 21.3359L2.5 11.2188Z" fill="#7977C6"/>
</svg>

<?xml version="1.0" encoding="utf-8"?>
<!-- Generator: Adobe Illustrator 28.0.0, SVG Export Plug-In . SVG Version: 6.00 Build 0)  -->
<svg version="1.1" id="Layer_1" xmlns="http://www.w3.org/2000/svg" xmlns:xlink="http://www.w3.org/1999/xlink" x="0px" y="0px"
	 viewBox="0 0 40 30" style="enable-background:new 0 0 40 30;" xml:space="preserve">
<style type="text/css">
	.st0{fill:#384593;}
</style>
<path class="st0" d="M0,5c0-2.8,2.2-5,5-5h30c2.8,0,5,2.2,5,5v20c0,2.8-2.2,5-5,5H5c-2.8,0-5-2.2-5-5V5z M2.5,5v3.1l15.3,11.2
	c1.3,1,3.1,1,4.4,0L37.5,8.1V5c0-1.4-1.1-2.5-2.5-2.5H4.9C3.6,2.5,2.4,3.6,2.5,5L2.5,5z M2.5,11.2V25c0,1.4,1.1,2.5,2.5,2.5h30
	c1.4,0,2.5-1.1,2.5-2.5V11.2L23.7,21.3c-2.2,1.6-5.2,1.6-7.4,0L2.5,11.2z"/>
</svg>
